X:1
T: The Daisy Field
C:
R:Reel
Q: 232
K:D
M:4/4
L:1/8
AG|FG AF DE FD|EA, A,G, A,2 AG|FG AF DE FG|((3fga) ec dB AG|
FG AF DE FD|EA, ((3A,G,A,) EA, ((3A,G,A,)|FG AF DE FA|fa ec d2 ag|
|:fd dc dc df|ed cd ef ge|fd dc df af|ec ((3ABc) d2 ag|
fd dc df af|ed cd ef ge|fd ef gb ag|1((3fga)  ec df ag:|2((3fga) ec dB AG|
FG AF DE FD|EA, A,G, A,2 AG|FG AF DE FG|((3fga) ec dB AG|
FG AF DE FD|EA, ((3A,G,A,) EA, ((3A,G,A,)|FG AF DE FA|fa ec d2||
